X:1
T:Guy Fawkes (Drum March For)
B:Singing Together, Autumn 1966, BBC Publications
F:http://www.folkinfo.org/songs
M:2/4     %Meter
L:1/16     %
K:G
G4 G4 |G4 G3G |A4 d3c |B3A G3
w:Guy Fawkes came to the Hou-ses of Par-lia-ment, 
G |A4 A3A |A4 A4 |E4 A3G |F3G A3
w:With pow-der and tin-der, for it was his in-tent 
D |d4 d3B |G4 A3B |(c3B) A3G |F3E D4 |
w:To blow up the Hou-ses, the Hou--ses of Par-lia-ment. 
G4 G4 |G6 z2 |D4 (E2F2) |(G2d2) e2c2 | B4 A4 |G6  |]
w:Bow! Wow! Wow! Bold Guy_ Fawkes_ and a Bow! Wow! Wow!